!!!!SEGMENT: pl-kk--kk-i-15--019_anonim--rorate-caeli.krn
!!!cenid: 16xx:1136
!!!COM: Anonim
!!!COM-rismID: pe30004985
!!!CDT:
!!!CNT:
!!!OTL: Rorate caeli
!!!PDT:
!!!AGN: Sacred
!!!SMS-siglum: PL-Kk
!!!SMS-shelfmark: Kk.I.15
!!!SMS-shelfwork: 019 W
!!!SMS-variant:
!!!SMS-altvar:
!!!NIFC-rismSourceID: 1001147299
!!!NIFC-islandoraID: pl-kk:2631
!!!URL-pdf-islandora: https://repozytorium.nifc.pl/islandora/object/pl-kk%3A2631/datastream/PDF/view
!!!URL-scan: https://polish.musicsources.pl/pl/lokalizacje/galeria/rekopisy/5777 @EN{Scan on Polish Music Herritage in Open Access Website} @PL{Skany w portalu Dziedzictwo Muzyki Polskiej w otwartym dostępie}
!!!ONB-nifc: UWAGA: C (skan 0012), A (skan 0029-0030), T (skan 0046-0047), B (skan 0064-0065). Następny utwór: Kyrie
!!!AIN: 1 alto 1 empty 1 tenor 1 vox
!!!key:
**kern	**text	**kern	**text	**kern	**text	**kern	**text
*part4	*part4	*part3	*part3	*part2	*part2	*part1	*part1
*staff4	*staff4	*staff3	*staff3	*staff2	*staff2	*staff1	*staff1
*group1	*	*group1	*	*group1	*	*group1	*
*Iempty	*	*Itenor	*	*Ialto	*	*Ivox	*
*I"Baſso	*	*I"Tenore.	*	*I"Alto	*	*I"Canto.	*
*I'B	*	*I'T	*	*I'A	*	*I'S	*
*clefF4	*	*clefC4	*	*clefC4	*	*clefC3	*
*k[]	*	*k[]	*	*k[]	*	*k[]	*
*d:	*	*d:	*	*d:	*	*d:	*
*M2/1	*	*M2/1	*	*M2/1	*	*M2/1	*
*met(C|)	*	*met(C)	*	*met(C|)	*	*met(C)	*
=1-	=1-	=1-	=1-	=1-	=1-	=1-	=1-
*	*	*	*	*lig	*	*lig	*
0rD	.	0rA	.	1G	Ro-	1G	Ro-
.	.	.	.	1.A	.	1A	.
*	*	*	*	*Xlig	*	*Xlig	*
=2-	=2-	=2-	=2-	=2-	=2-	=2-	=2-
*	*	*	*	*	*	*lig	*
1rD	.	1rA	.	.	.	1A	-ra-
.	.	.	.	4G/	-o-	.	.
.	.	.	.	4F/	.	.	.
*lig	*	*lig	*	*	*	*	*
1C	Ro-	1C	Ro-	4E/	.	1e	.
.	.	.	.	4D/	-ra-	.	.
.	.	.	.	4C/	.	.	.
.	.	.	.	4G/	.	.	.
*	*	*	*	*	*	*Xlig	*
=3-	=3-	=3-	=3-	=3-	=3-	=3-	=3-
1.D	.	1D	.	2.F/	-te	0f	.
*Xlig	*	*Xlig	*	*	*	*	*
.	.	.	.	4E/	.	.	.
*	*	*lig	*	*	*	*	*
.	.	1D	-ra-	1D	.	.	.
2BB/	-ra-	.	.	.	.	.	.
=4-	=4-	=4-	=4-	=4-	=4-	=4-	=4-
!	!	!	!	!LO:TX:a:t=1	!	!	!
2AA/	.	1A	.	1r	.	2.e\	-te
4GG/	.	.	.	.	.	.	.
4FF/	.	.	.	.	.	4d\	.
*	*	*Xlig	*	*lig	*	*	*
1C	.	1c	-te	1C	Ro-	4c\	.
.	.	.	.	.	.	4B\	.
.	.	.	.	.	.	2A/	.
=5-	=5-	=5-	=5-	=5-	=5-	=5-	=5-
1FF	-te	2A/	.	1D	.	4a\	ro-
.	.	.	.	.	.	4g\	.
.	.	1A	cae-	.	.	4f\	.
.	.	.	.	.	.	4e\	.
*	*	*	*	*Xlig	*	*	*
*	*	*	*	*lig	*	*	*
!LO:TX:a:t=1	!	!	!	!	!	!	!
1r	.	.	.	1D	-ra-	1d	ra-
.	.	2B/	.	.	.	.	.
=6-	=6-	=6-	=6-	=6-	=6-	=6-	=6-
*lig	*	*	*	*	*	*	*
1FF	Ro-	2c\	.	1A	.	2c/	-te
.	.	2A/	.	.	.	1f	cae-
*	*	*	*	*Xlig	*	*	*
1GG	.	1G	-li	0B	.	.	.
.	.	.	.	.	.	4e\	.
.	.	.	.	.	.	4d\	.
*Xlig	*	*	*	*	*	*	*
=7-	=7-	=7-	=7-	=7-	=7-	=7-	=7-
*lig	*	*	*	*	*	*	*
1GG	-ra-	2rF	.	.	.	1e	.
.	.	2G/	ro-	.	.	.	.
1D	.	2F/	.	0A	-te	1f	.
.	.	2.D/	-ra-	.	.	.	.
*Xlig	*	*	*	*	*	*	*
=8-	=8-	=8-	=8-	=8-	=8-	=8-	=8-
1F	.	.	.	.	.	2f\	-li
.	.	4E/	.	.	.	.	.
.	.	2.F/	.	.	.	1d	.
*	*	*	*	*lig	*	*	*
1D	-te	.	.	1A	cae-	.	.
.	.	4E/	.	.	.	.	.
!	!	!	!	!	!	!LO:TX:t=P:problem=kropka w kolejnym systemie	!
.	.	4D/	.	.	.	2.d\	cae-
.	.	4C/	.	.	.	.	.
=9-	=9-	=9-	=9-	=9-	=9-	=9-	=9-
*lig	*	*	*	*	*	*	*
1D	cae-	1D	.	1B	.	.	.
!	!	!	!	!	!	!LO:LB:g=original	!
.	.	.	.	.	.	4e\	.
.	.	.	.	.	.	2f\	.
*	*	*	*	*Xlig	*	*lig	*
1E	.	2C/	-te	2.c/	.	1e	.
.	.	4c\	cae-	.	.	.	.
.	.	4B\	.	4B\	.	.	.
*Xlig	*	*	*	*	*	*	*
=10-	=10-	=10-	=10-	=10-	=10-	=10-	=10-
2.F\	.	2A/	.	2A/	.	1c	.
.	.	2G/	-li	2G/	.	.	.
4E\	.	.	.	.	.	.	.
*	*	*	*	*	*	*Xlig	*
2D/	.	2A/	.	2A/	.	2d\	.
!	!	!LO:TX:t=P:problem=kreska pseudotaktowa	!	!	!	!	!
2C/	.	2G/	.	2c\	.	2e\	.
=11-	=11-	=11-	=11-	=11-	=11-	=11-	=11-
1D	.	4F/	cae-	2B\	.	1f	.
.	.	4G/	.	.	.	.	.
!	!	!LO:LB:g=original	!	!	!	!	!
.	.	4A\	.	1A	.	.	.
.	.	4B\	.	.	.	.	.
1.C	-li	4c\	.	.	.	2.e\	.
.	.	4d\	.	.	.	.	.
.	.	2.e\	.	4G/	.	.	.
.	.	.	.	4F/	.	4d\	.
=12-	=12-	=12-	=12-	=12-	=12-	=12-	=12-
.	.	.	.	1G	-li	4e\	.
.	.	4d\	.	.	.	4f\	.
2G\	cae-	4c\	.	.	.	1g	.
.	.	4B\	.	.	.	.	.
!	!	!	!	!LO:LB:g=original	!	!	!
1A	.	1c	-li	1A	ro-	.	.
.	.	.	.	.	.	2f\	.
=13-	=13-	=13-	=13-	=13-	=13-	=13-	=13-
1G	-li	2.d\	de-	2G/	-ra-	2g\	.
.	.	.	.	2G/	-te	4f\	.
.	.	4c\	.	.	.	4e\	.
*lig	*	*	*	*	*	*	*
!LO:LB:g=original	!	!	!	!	!	!	!
1D	de-	2B\	.	2B\	cae-	1d	.
.	.	2.A/	.	2A/	-li	.	.
=14-	=14-	=14-	=14-	=14-	=14-	=14-	=14-
!	!	!	!	!	!	!LO:TX:t=P:problem=kreska pseudotaktowa	!
1F	.	.	.	1rB	.	1c	-li
.	.	4G/	.	.	.	.	.
.	.	4F/	.	.	.	.	.
.	.	4E/	.	.	.	.	.
*Xlig	*	*	*	*	*	*	*
*lig	*	*	*	*lig	*	*	*
1F	-ſu-	2D/	.	1A	de-	2r	.
.	.	2d\	-ſu-	.	.	2d\	de-
=15-	=15-	=15-	=15-	=15-	=15-	=15-	=15-
1E	.	1c	-per	1c	-ſu-	2e\	.
.	.	.	.	.	.	1g	.
*Xlig	*	*	*	*Xlig	*	*	*
*lig	*	*	*	*lig	*	*	*
1F	.	2g\	de-	1c	.	.	.
.	.	1f\	-ſu-	.	.	1f\	-ſu-
=16-	=16-	=16-	=16-	=16-	=16-	=16-	=16-
1G	.	.	.	1B	.	.	.
.	.	2e\	.	.	.	2e\	.
*Xlig	*	*	*	*Xlig	*	*	*
*	*	*	*	*lig	*	*	*
1.F	.	2f\	-per	1c	.	1f	-per
.	.	1c\	de-	.	.	.	.
=17-	=17-	=17-	=17-	=17-	=17-	=17-	=17-
.	.	.	.	1d	.	2rf	.
2G\	.	1B	.	.	.	2.g\	de-
*	*	*	*	*Xlig	*	*	*
1A	.	.	.	1c	.	.	.
.	.	.	.	.	.	4e\	.
*	*	*	*	*	*	*custos:d	*
.	.	2A/	.	.	.	2f\	.
!	!	!	!	!	!	!LO:LB:g=original	!
=18-	=18-	=18-	=18-	=18-	=18-	=18-	=18-
2G\	.	2B/	-ſu-	2d\	.	2d\	.
2E\	.	2G/	.	2e\	.	2g\	.
2F\	.	2A/	-per	2d\	.	4f\	.
.	.	.	.	.	.	4e\	.
2A\	.	2c\	et	1c\	.	4d\	.
.	.	.	.	.	.	4c\	.
=19-	=19-	=19-	=19-	=19-	=19-	=19-	=19-
1G	.	1G	nu-	.	.	1d	-ſu-
.	.	.	.	2B\	-per	.	.
1F	-per	1A	.	1.c	De-	2A/	-per
.	.	.	.	.	.	2.c/	et
=20-	=20-	=20-	=20-	=20-	=20-	=20-	=20-
1C	et	2G/	.	.	.	.	.
.	.	.	.	.	.	4B/	.
.	.	2c\	.	2C/	.	1A	.
*lig	*	*	*	*lig	*	*	*
1E	nu-	1B	.	1E	-ſu-	.	.
.	.	.	.	.	.	2G/	.
!	!	!LO:PB:g=original	!	!	!	!	!
=21-	=21-	=21-	=21-	=21-	=21-	=21-	=21-
1F	.	1A	.	1F	.	2A/	nu-
.	.	.	.	.	.	2A/	-bes
*Xlig	*	*	*	*Xlig	*	*	*
1D	-bes	2A/	-bes	1D	-per	4a\	nu-
.	.	.	.	.	.	4g\	.
.	.	1d\	plu-	.	.	4f\	.
.	.	.	.	.	.	4e\	.
=22-	=22-	=22-	=22-	=22-	=22-	=22-	=22-
1D	plu-	.	.	1rB	.	2d\	.
.	.	4c\	.	.	.	1d	-bes
.	.	4B\	.	.	.	.	.
2.E/	.	4A\	.	1G	et	.	.
.	.	4G/	.	.	.	.	.
.	.	1G/	.	.	.	2c/	.
4F\	.	.	.	.	.	.	.
=23-	=23-	=23-	=23-	=23-	=23-	=23-	=23-
*	*	*	*	*lig	*	*lig	*
1D	.	.	.	1B	nu-	1d	plu-
.	.	2F/	.	.	.	.	.
1C	.	1G	-ant	1c	.	1e	.
*	*	*	*	*Xlig	*	*Xlig	*
=24-	=24-	=24-	=24-	=24-	=24-	=24-	=24-
*	*	*	*	*	*	*col	*
!	!	!	!	!	!	!LO:TX:a:t=2	!
1.D	.	2F/	.	1A	.	(<1.f	.
.	.	4D/	.	.	.	.	.
.	.	4E/	.	.	.	.	.
.	.	4F/	.	1A	-bes	.	.
.	.	4G/	.	.	.	.	.
2C/	.	1A/	.	.	.	2e\)	.
*	*	*	*	*	*	*Xcol	*
=25-	=25-	=25-	=25-	=25-	=25-	=25-	=25-
*	*	*	*	*lig	*	*	*
1BB	.	.	.	1B	plu-	1d	.
.	.	2G/	.	.	.	.	.
2AA/	-ant	4A\	.	1c	.	2c/	.
.	.	4B\	.	.	.	.	.
1A\	Ju-	4c\	.	.	.	4A/	-ant
.	.	4d\	.	.	.	4B/	.
*	*	*	*	*Xlig	*	*	*
=26-	=26-	=26-	=26-	=26-	=26-	=26-	=26-
.	.	1e	.	1A	.	4c\	.
.	.	.	.	.	.	4d\	.
2G\	.	.	.	.	.	1e	.
!	!	!	!	!LO:TX:t=P:problem=kreska pseudotaktowa	!	!	!
!LO:LB:g=original	!	!LO:TX:t=P:problem=druga ligatura od dołu	!	!LO:LB:g=original	!	!	!
1F	.	[2d\	Ju-	1A	-ant	.	.
.	.	2d]	.	.	.	2d\	.
!	!	!	!	!	!	!LO:LB:g=original	!
=27-	=27-	=27-	=27-	=27-	=27-	=27-	=27-
*	*	*	*	*lig	*	*	*
!LO:TX:t=P:problem=kreska pseudotaktowa	!	!	!	!	!	!LO:TX:t=P:problem=kreska pseudotaktowa	!
1E	.	2B\	.	1G	iu-	1e	.
!	!	!LO:TX:t=P:problem=kreska pseudotaktowa	!	!	!	!	!
.	.	2c\	.	.	.	.	.
2F\	.	1A	-stu(m)	1F	.	2c/	.
2.D/	-stum	.	.	.	.	2.d/	.
*	*	*	*	*Xlig	*	*	*
=28-	=28-	=28-	=28-	=28-	=28-	=28-	=28-
*	*	*	*	*lig	*	*	*
.	.	2A/	.	1A	.	.	.
4E\	.	.	.	.	.	4c/	.
!	!	!LO:TX:t=P:problem=kreska pseudotaktowa	!	!	!	!	!
2F\	.	2c\	.	.	.	2c/	.
!	!	!	!	!	!	!LO:TX:t=#	!
2G\	.	1B	.	1G	.	1Bn	.
2GG/	.	.	.	.	.	.	.
*	*	*	*	*Xlig	*	*	*
=29-	=29-	=29-	=29-	=29-	=29-	=29-	=29-
2AA/	.	2A/	.	2F/	.	2A/	.
!	!	!	!	!	!	!LO:TX:t=#	!
1GG	.	2.B/	.	2.G/	.	2.Bn/	Ju-
.	.	4A/	.	4F/	.	4A/	.
!	!	!LO:TX:t=P:problem=kreska pseudotaktowa	!	!	!	!	!
2D/	.	2r	.	1F/	.	4G/	.
!	!	!	!	!	!	!LO:TX:t=P:problem=kreska pseudotaktowa	!
.	.	.	.	.	.	4F/	.
=30-	=30-	=30-	=30-	=30-	=30-	=30-	=30-
1C	.	2.c\	a-	.	.	1G	.
!	!	!	!	!LO:TX:t=P:problem=kreska pseudotaktowa	!	!	!
.	.	.	.	2E/	.	.	.
.	.	4B\	.	.	.	.	.
2FF/	a-	2.A/	-pe-	1F,<	-ſtu(m)	2.F/	.
2.F\	-pe-	.	.	.	.	.	.
!	!	!	!	!	!	!LO:TX:t=P:problem=kreska pseudotaktowa	!
.	.	4G/	.	.	.	4G/	.
!	!	!LO:LB:g=original	!	!	!	!	!
=31-	=31-	=31-	=31-	=31-	=31-	=31-	=31-
.	.	2F/	-ri-	1F	a-	4A/	.
4G\	.	.	.	.	.	4B/	.
2A\	-ri-	1f	-a-	.	.	1c	.
1G	-a-	.	.	1G	-pe-	.	.
!	!	!LO:TX:t=P:problem=kreska pseudotaktowa	!	!	!	!LO:TX:t=P:problem=kreska pseudotaktowa	!
.	.	2e\	-tur	.	.	2B/	.
=32-	=32-	=32-	=32-	=32-	=32-	=32-	=32-
1.F	.	1f	ter-	1A	-ri-	1c	-ſtum
*	*	*	*	*lig	*	*	*
.	.	2c\	.	1A	-a-	2F/	a-
2D/	.	2d\	.	.	.	2f\	-pe-
=33-	=33-	=33-	=33-	=33-	=33-	=33-	=33-
2.C/	.	1.G	-ra	1c	.	2e\	-ri-
.	.	.	.	.	.	1g	-a-
4BB/	.	.	.	.	.	.	.
*	*	*	*	*Xlig	*	*	*
4C/	.	.	.	1G	-tur	.	.
4D/	.	.	.	.	.	.	.
!	!	!LO:TX:t=P:problem=kreska pseudotaktowa	!	!	!	!	!
2E/	.	[2c\	ter-	.	.	4f\	.
!	!	!	!	!	!	!LO:TX:t=P:problem=kreska pseudotaktowa	!
.	.	.	.	.	.	4e\	.
=34-	=34-	=34-	=34-	=34-	=34-	=34-	=34-
1D	.	2c]	.	1F	ter-	1f	.
.	.	2B\	.	.	.	.	.
2C/	-tur	4c\	.	2G/	.	2e\	.
.	.	4B\	.	.	.	.	.
1D\	ter-	4A/	.	1F/	.	1A/	-tur
.	.	4G/	.	.	.	.	.
=35-	=35-	=35-	=35-	=35-	=35-	=35-	=35-
.	.	2F/	.	.	.	.	.
!	!	!LO:TX:t=P:problem=kreska pseudotaktowa	!	!	!	!	!
4C/	.	2G/	-ra	4E/	.	1d	ter-
4BB/	.	.	.	4D/	.	.	.
1AA	-ra	2.A/	et	1E	.	.	.
!	!	!	!	!	!	!LO:TX:t=P:problem=kreska pseudotaktowa	!
.	.	.	.	.	.	2c/	.
.	.	4G/	.	.	.	.	.
=36-	=36-	=36-	=36-	=36-	=36-	=36-	=36-
2.A\	ter-	4F/	.	0D	-ra	2.d\	.
.	.	4E/	.	.	.	.	.
.	.	1D	.	.	.	.	.
4G\	.	.	.	.	.	8c/L	.
.	.	.	.	.	.	8B/J	.
!	!	!	!	!	!	!LO:LB:g=original	!
4F\	.	.	.	.	.	2A/	.
4E\	.	.	.	.	.	.	.
2.D/	.	2.F/	.	.	.	2.B/	-ra
=37-	=37-	=37-	=37-	=37-	=37-	=37-	=37-
.	.	.	.	0rA	.	.	.
*custos:BB	*	*	*	*	*	*	*
4C/	.	4E/	.	.	.	4A/	.
!LO:LB:g=original	!	!	!	!	!	!	!
4BB/	.	4D/	.	.	.	4G/	.
!	!	!	!	!	!	!LO:TX:t=P:problem=kreska pseudotaktowa	!
4AA/	.	4C/	.	.	.	4F/	.
1GG	-ra	2D/	.	.	.	1G	.
!	!	!LO:TX:t=P:problem=kreska pseudotaktowa	!	!	!	!	!
.	.	2E/	.	.	.	.	.
=38-	=38-	=38-	=38-	=38-	=38-	=38-	=38-
2FF/	.	2.F/	ger-	1F	et	2.A/	et
2.F\	et	.	.	.	.	.	.
.	.	4G\	.	.	.	4B/	.
.	.	2A/	.	1F	ger-	2c/	ger-
4E\	.	.	.	.	.	.	.
!	!	!	!	!	!	!LO:TX:t=P:problem=kreska pseudotaktowa	!
2D/	.	2B\	.	.	.	2d\	.
=39-	=39-	=39-	=39-	=39-	=39-	=39-	=39-
1C	.	2G/	.	1G	.	1e	.
.	.	1c	-mi-	.	.	.	.
*	*	*	*	*lig	*	*	*
1D	ger-	.	.	1F	.	4d\	.
.	.	.	.	.	.	4c\	.
.	.	(2B\	-net	.	.	1f\	.
=40-	=40-	=40-	=40-	=40-	=40-	=40-	=40-
1C	-mi-	1c)	.	1G	.	.	.
.	.	.	.	.	.	2e\	-mi-
*lig	*	*	*	*Xlig	*	*	*
!	!	!LO:LB:g=original	!	!LO:LB:g=original	!	!LO:TX:t=P:problem=kreska pseudotaktowa	!
1FF	-net	1A	ſal-	1F	-mi-	2.f\	-net
.	.	.	.	.	.	4e\	.
=41-	=41-	=41-	=41-	=41-	=41-	=41-	=41-
1GG	.	1B	.	1D	-net	2d/	.
.	.	.	.	.	.	2B-/	ſal-
*Xlig	*	*	*	*	*	*	*
!	!	!	!	!	!	!LO:TX:t=P:problem=kreska pseudotaktowa	!
2FF/	.	2A/	.	2rE	.	2c/	.
1F\	.	2F/	.	2.D/	Sal-	1d\	.
=42-	=42-	=42-	=42-	=42-	=42-	=42-	=42-
.	.	2B/	.	.	.	.	.
.	.	.	.	4E/	.	.	.
!	!	!	!	!LO:TX:t=P:problem=kreska pseudotaktowa	!	!	!
4E\	.	2A/	.	2F/	.	2.c/	.
4D\	.	.	.	.	.	.	.
2.E\	.	1G	-va-	1C	-va-	.	.
.	.	.	.	.	.	4Bny/	.
!	!	!	!	!	!	!LO:TX:t=P:problem=kreska pseudotaktowa	!
.	.	.	.	.	.	2c/	.
4F\	.	.	.	.	.	.	.
=43-	=43-	=43-	=43-	=43-	=43-	=43-	=43-
*	*	*	*	*lig	*	*lig	*
2.D/	ſal-	2F/	.	1F	-to-	1A	-va-
.	.	1A	-to-	.	.	.	.
4C/	.	.	.	.	.	.	.
1BB	.	.	.	1D	.	1d	.
.	.	2G/	.	.	.	.	.
*	*	*	*	*Xlig	*	*Xlig	*
=44-	=44-	=44-	=44-	=44-	=44-	=44-	=44-
!	!	!LO:TX:t=P:problem=kreska pseudotaktowa	!	!	!	!	!
0AA	-va-	0A	-rem	2E/	.	0c	.
.	.	.	.	1F	-rem	.	.
.	.	.	.	4E/	.	.	.
!	!	!	!	!LO:TX:t=P:problem=kreska pseudotaktowa	!	!	!
.	.	.	.	4D/	.	.	.
=45-	=45-	=45-	=45-	=45-	=45-	=45-	=45-
2AA/	-to-	1rB	.	2E/	Sal-	2c/	.
2FF/	.	.	.	2.F/	-va-	2A/	.
1GG	-rem	1G	ſal-	.	.	1B	.
.	.	.	.	4D/	.	.	.
.	.	.	.	2E/	-to-	.	.
!	!	!	!	!	!	!LO:LB:g=original	!
=46-	=46-	=46-	=46-	=46-	=46-	=46-	=46-
2FF/	-rem	2A/	.	2F/	.	2A/	-em
1C	ſal-	2.G/	-va-	2G/	.	2.e\	sal-
.	.	.	.	1D	.	.	.
.	.	4E/	.	.	.	4d\	.
2BB/	-va-	4F/	.	.	.	1d\	.
!	!	!LO:TX:t=P:problem=kreska pseudotaktowa	!	!	!	!	!
.	.	4G/	.	.	.	.	.
=47-	=47-	=47-	=47-	=47-	=47-	=47-	=47-
1AA	-to-	1A	-to-	1E	.	.	.
!	!	!	!	!	!	!LO:TX:t=P:problem=kreska pseudotaktowa	!
.	.	.	.	.	.	2c/	-va-
2BB/	.	2F/	.	[1Dl;;	-rem	1d	-to-
2GG/	.	2G./	.	.	.	.	.
=48-	=48-	=48-	=48-	=48-	=48-	=48-	=48-
2.BB/	.	.	.	0D]	.	2d/	.
.	.	4F/	.	.	.	.	.
.	.	4D/	.	.	.	4c/	.
4C/	.	4E/	.	.	.	4B/	.
1Dl;;	-rem	1Fl;;	-rem.	.	.	1Al;;	-rem
!LO:PB:g=original	!	!	!	!	!	!	!
=49||	=49||	=49||	=49||	=49||	=49||	=49||	=49||
*M2/1	*	*M2/1	*	*	*	*M2/1	*
*met(C)	*	*met(C)	*	*	*	*met(C)	*
!	!	!	!	!	!	!LO:TX:t=P:problem=kreska pseudotaktowa	!
1.C	Be-	00r	.	1.C	Be-	00r	.
*	*	*	*	*custos:E	*	*	*
1.D\	-ne-	.	.	1.D/	-ne-	.	.
=50-	=50-	=50-	=50-	=50-	=50-	=50-	=50-
.	.	.	.	.	.	.	.
!	!	!	!	!LO:PB:g=original	!	!	!
2E\	.	.	.	2E/	-di-	.	.
1F\	.	.	.	1F/	-xi-	.	.
=51-	=51-	=51-	=51-	=51-	=51-	=51-	=51-
.	.	1rA	.	.	.	1.c	Be-
4E\	.	.	.	4E/	.	.	.
4D\	.	.	.	4D/	.	.	.
!	!	!LO:LB:g=original	!	!	!	!	!
2E\	.	2rF	.	2E/	-ſti	.	.
2F\	.	1F/	Be-	[2F/	Be-	1.d\	-ne-
=52-	=52-	=52-	=52-	=52-	=52-	=52-	=52-
1D	.	.	.	2F]	.	.	.
.	.	2F/	-ne-	1.G	-ne-	.	.
1C	-di-	1.G	-di-	.	.	1e	-di-
=53-	=53-	=53-	=53-	=53-	=53-	=53-	=53-
2BB/	.	.	.	1A	-di-	2d/	-xi-
2AA/	.	2.A/	-xi-	.	.	4c/	.
.	.	.	.	.	.	4B/	.
2D/	.	.	.	2F/	.	4A/	.
.	.	4B\	.	.	.	4F/	.
2C/	.	2c\	-ſti	1G/	-xi-	1G/	.
=54-	=54-	=54-	=54-	=54-	=54-	=54-	=54-
2BB/	.	2d\	Do-	.	.	.	.
2AA/	.	1c	.	2A/	.	2A/	-ſti
1GG	-xi-	.	.	1D	-ſti	1d	Do-
.	.	2B\	.	.	.	.	.
=55-	=55-	=55-	=55-	=55-	=55-	=55-	=55-
2FF/	-ſti	2.c\	.	2.A/	Do-	2.A/	.
1F	be-	.	.	.	.	.	.
.	.	4B\	.	4G/	-mi-	4G/	-mi-
*	*	*	*	*	*	*custos:f	*
.	.	2A/	.	2F/	-ne	2F/	-ne
!	!	!	!	!	!	!LO:PB:g=original	!
2BB/	-ne-	2B/	.	2rE	.	1f\	Do-
=56-	=56-	=56-	=56-	=56-	=56-	=56-	=56-
2.C/	.	2G/	.	1rG	.	.	.
.	.	2.A/	.	.	.	2e\	-mi-
4BB/	.	.	.	.	.	.	.
!	!	!	!	!	!	!LO:TX:t=P:problem=plama niebędąca pauzą	!
2AA/	-di-	.	.	1F	Be-	2f\	-ne
.	.	4G/	.	.	.	.	.
2BB/	.	1F/	.	.	.	1B/	.
!LO:LB:g=original	!	!	!	!	!	!	!
=57-	=57-	=57-	=57-	=57-	=57-	=57-	=57-
*	*	*	*	*lig	*	*	*
1GG	-xi-	.	.	1G	-ne-	.	.
.	.	2E/	-mi-	.	.	2g\	ter-
0FF	-ſti	1F	-ne	1A	.	2c/	-ra(m)
.	.	.	.	.	.	1.f\	ter-
*	*	*	*	*Xlig	*	*	*
=58-	=58-	=58-	=58-	=58-	=58-	=58-	=58-
.	.	2rF	.	2A/	-di-	.	.
.	.	2.c\	ter-	2A/	-xi-	.	.
2rGG	.	.	.	2A/	-ſti	4e\	.
.	.	4B\	.	.	.	4d\	.
2.F\	Do-	4A\	.	2A/	Do-	4e\	.
.	.	4G\	.	.	.	4d\	.
=59-	=59-	=59-	=59-	=59-	=59-	=59-	=59-
.	.	2.F/	.	2A/	-mi-	4c/	.
4E\	.	.	.	.	.	4B/	.
2D/	.	.	.	2A/	-ne	4A/	.
.	.	4G/	.	.	.	4G/	.
*	*	*	*	*lig	*	*	*
2C/	.	2A/	.	1A	ter-	2F/	.
1D\	.	2D/	-ram	.	.	2E/	.
=60-	=60-	=60-	=60-	=60-	=60-	=60-	=60-
.	.	2.A/	tu-	1c	.	2.F/	-ram
2C/	.	.	.	.	.	.	.
.	.	4G/	.	.	.	4D/	tu-
*lig	*	*	*	*Xlig	*	*	*
1D	mi-	4F/	.	1A	-ra(m)	2E/	.
.	.	4E/	.	.	.	.	.
.	.	2F/	.	.	.	2D/	-am
=61-	=61-	=61-	=61-	=61-	=61-	=61-	=61-
*col	*	*	*	*	*	*	*
*	*	*	*	*custos:G	*	*	*
2.AA/	.	1.E	.	1A	tu-	2d\	ter-
.	.	.	.	.	.	2.c\	-ram
*Xlig	*	*	*	*	*	*	*
4BB/	-ne	.	.	.	.	.	.
*Xcol	*	*	*	*	*	*	*
!	!	!	!	!LO:LB:g=original	!	!	!
2C/	ter-	.	.	2G/	-[[am]]-	.	.
.	.	.	.	.	.	4d\	.
2GG/	.	2D/	-am	1B\	.	4e\	.
.	.	.	.	.	.	4f\	.
!	!	!LO:LB:g=original	!	!	!	!	!
=62-	=62-	=62-	=62-	=62-	=62-	=62-	=62-
2G\	.	1rA	.	.	.	2g\	ter-
2F\	.	.	.	2A/	.	2d\	.
2E\	.	2rF	.	2G/	-am	2e\	.
2.D/	.	2.F/	ter-	1B\	ter-	2f\	.
=63-	=63-	=63-	=63-	=63-	=63-	=63-	=63-
.	.	.	.	.	.	2d\	.
4GG/	.	4G/	.	.	.	.	.
1C	.	1E	.	2A/	.	1e	.
.	.	.	.	2G/	.	.	.
2AA/	.	2A/	.	2c\	.	2c/	.
=64-	=64-	=64-	=64-	=64-	=64-	=64-	=64-
2BB/	.	2G/	.	2B\	.	2d/	.
1C	-ram	2.E/	-ram	2A/	.	1e	-ram
.	.	.	.	2G/	.	.	.
.	.	4D/	.	.	.	.	.
!	!	!	!	!	!	!LO:LB:g=original	!
2D/	tu-	1d\	tu-	2F/	-ram	2.f\	tu-
=65-	=65-	=65-	=65-	=65-	=65-	=65-	=65-
!LO:TX:a:t=P:problem=♭ above	!	!	!	!	!	!	!
2BB-X/	.	.	.	2BX/	tu-	.	.
.	.	.	.	.	.	4d\	.
2C/	.	2c\	.	1A	.	2e\	.
2D/	.	1B-X	.	.	.	4d\	.
.	.	.	.	.	.	4f\	.
2E\	.	.	.	2G/	.	4e\	.
.	.	.	.	.	.	4d\	.
=66-	=66-	=66-	=66-	=66-	=66-	=66-	=66-
0F;;	-am	0A;;	-am	0A;<	-am	0c;;	-am
=67-	=67-	=67-	=67-	=67-	=67-	=67-	=67-
!LO:TX:t=1	!	!	!	!	!	!	!
1r	.	1G	a-	0rA	.	0d	A-
*lig	*	*	*	*	*	*	*
1D	a-	4F/	-ver-	.	.	.	.
.	.	4G/	.	.	.	.	.
.	.	4A\	.	.	.	.	.
.	.	4Bny\	.	.	.	.	.
=68-	=68-	=68-	=68-	=68-	=68-	=68-	=68-
*	*	*	*	*lig	*	*	*
1C	.	1c	-tiſ-	1G	a-	1e	-ver-
*Xlig	*	*	*	*	*	*	*
*lig	*	*	*	*	*	*	*
!LO:LB:g=original	!	!	!	!	!	!	!
1D	-ver-	2A/	-ti	1F	.	2f\	.
.	.	2d\	Ca-	.	.	1d\	.
*	*	*	*	*Xlig	*	*	*
=69-	=69-	=69-	=69-	=69-	=69-	=69-	=69-
*	*	*	*	*lig	*	*	*
1E	.	2B\	-pti-	1G	-ver-	.	.
.	.	2c\	-vi-	.	.	2c/	tiſ-
*Xlig	*	*	*	*	*	*	*
2D/	.	2F/	-ta-	1A	.	2d/	-ti
2.F\	.	2.A/	.	.	.	1c\	Cap-
*	*	*	*	*Xlig	*	*	*
=70-	=70-	=70-	=70-	=70-	=70-	=70-	=70-
.	.	.	.	2A/	-tiſ-	.	.
4E\	.	4G/	.	.	.	.	.
!	!	!	!	!LO:TX:t=P:problem=przekreślona synkopowana wartość	!	!	!
1D	.	1F	.	1A,<	-ti	2d/	-ti-
.	.	.	.	.	.	1e	-vi-
!	!	!	!	!LO:TX:t=P:problem=przekreślona synkopowana wartość	!	!	!
2C/	.	2E/	-[tem]	1A	cap-	.	.
=71-	=71-	=71-	=71-	=71-	=71-	=71-	=71-
0D	-tiſ-	2F/	Ja-	.	.	2d\	.
!	!	!	!	!LO:TX:t=P:problem=przekreślona synkopowana wartość	!	!	!
.	.	2.D/	.	1A	-ti-	2.f\	-ta-
.	.	4C/	.	.	.	4e\	.
.	.	2F/	.	2A/	-vi-	1d\	.
=72-	=72-	=72-	=72-	=72-	=72-	=72-	=72-
1AA	-ti	1E	.	1A	-ta-	.	.
.	.	.	.	.	.	2c/	.
2rBB	.	2D/	-cob	1A	-te(m)	2.d\	.
2D/	cap-	1d\	Ca-	.	.	.	.
.	.	.	.	.	.	4e\	.
=73-	=73-	=73-	=73-	=73-	=73-	=73-	=73-
2D/	-ti-	.	.	2rF	.	2f\	-tem
2D/	-vi-	4c\	.	2A/	Cap-	2.F/	Ja-
*	*	*custos:A	*	*	*	*	*
*	*	*custos:c	*	*	*	*	*
.	.	4B\	.	.	.	.	.
!	!	!LO:LB:g=original	!	!	!	!	!
2.D/	-ta-	2A/	-pti-	2A/	-ti-	.	.
.	.	.	.	.	.	4G/	.
.	.	2d\	-vi-	2A/	-vi-	2.A/	.
4E\	.	.	.	.	.	.	.
=74-	=74-	=74-	=74-	=74-	=74-	=74-	=74-
*	*	*	*	*lig	*	*	*
!	!	!	!	!LO:LB:g=original	!	!	!
1F	.	2c\	-ta-	1A	-ta-	.	.
.	.	.	.	.	.	4B/	.
.	.	1A	.	.	.	2c/	.
1D	.	.	.	1B	.	1d	.
.	.	4G/	.	.	.	.	.
.	.	4F/	.	.	.	.	.
*	*	*	*	*Xlig	*	*	*
=75-	=75-	=75-	=75-	=75-	=75-	=75-	=75-
*	*	*	*	*lig	*	*	*
2C/	.	2G/	.	1c	.	2e\	.
!	!	!	!	!	!	!LO:LB:g=original	!
2.FF/	.	2.A/	.	.	.	1c	.
.	.	.	.	1A	.	.	.
4GG/	.	4G/	.	.	.	.	.
2AA/	.	1F/	.	.	.	4B/	.
.	.	.	.	.	.	4A/	.
*	*	*	*	*Xlig	*	*	*
=76-	=76-	=76-	=76-	=76-	=76-	=76-	=76-
2BBny/	.	.	.	1G	.	2d/	.
2C/	.	2E/	.	.	.	4c/	.
.	.	.	.	.	.	4B/	.
1D	.	1F	-[tem]	2F,</	-tem	1A	.
!	!	!	!	!LO:TX:t=P:problem=kreska pseudotaktowa	!	!	!
.	.	.	.	2F/	Ja-	.	.
=77-	=77-	=77-	=77-	=77-	=77-	=77-	=77-
2AA/	-tem	2C/	Ja-	2E/	.	1A	-cob
2.A\	Ja-	2D/	-cob	1F	.	.	.
*	*	*	*ij	*	*	*	*
.	.	2AA/	Ja-	.	.	0r	.
4G\	.	.	.	.	.	.	.
2F\	.	2D/	.	4E/	.	.	.
.	.	.	.	4D/	.	.	.
=78-	=78-	=78-	=78-	=78-	=78-	=78-	=78-
2E\	.	2E/	.	2C/	.	.	.
2D/	.	2F/	.	2D/	.	.	.
2C/	.	2G/	.	2E/	.	1r	.
!LO:LB:g=original	!	!	!	!	!	!	!
2.D/	.	2.B-X\	.	2.F/	.	.	.
=79-	=79-	=79-	=79-	=79-	=79-	=79-	=79-
.	.	.	.	.	.	2r	.
4C/	.	4A\	.	4E/	.	.	.
*	*	*	*	*	*	*lig	*
2BB/	.	1G	.	1D	.	1d	Ja-
1AA	.	.	.	.	.	.	.
*	*	*	*	*	*	*col	*
.	.	2F/	cob	2C/	.	2.e\	.
*	*	*	*Xij	*	*	*Xlig	*
=80-	=80-	=80-	=80-	=80-	=80-	=80-	=80-
*^	*	*	*	*	*	*	*
*	*	*	*	*ij	*	*	*	*
2GG/	2ryy	.	2G/	Ja-	1D	.	.	.
.	.	.	.	.	.	.	4d\	.
*	*	*	*	*	*	*	*Xcol	*
2FF/	2F/	.	2A/	.	.	.	2.d\	.
2GG/	2G/	.	2G/	.	1E	.	.	.
.	.	.	.	.	.	.	4B/	.
2AA/	2A/	.	2E/	.	.	.	2c/	.
=81-	=81-	=81-	=81-	=81-	=81-	=81-	=81-	=81-
2FF/	2F/	.	2F/	.	[0Dl;;	-cob	2A/	.
1GG	1G	.	2Bny\	.	.	.	2G/	.
.	.	.	2.D/	.	.	.	1B-X	.
4FF/	4F/	.	.	.	.	.	.	.
4EE/	4E/	.	4E/	.	.	.	.	.
=82-	=82-	=82-	=82-	=82-	=82-	=82-	=82-	=82-
0EEl;\	0El;/	-cob	0Fl;;	-cob	0D]	.	0Al;;	-cob
*	*	*	*	*Xij	*	*	*	*
*v	*v	*	*	*	*	*	*	*
=83||	=83||	=83||	=83||	=83||	=83||	=83||	=83||
1F	Glo-	1c	Glo-	1F	Glo-	2r	.
.	.	.	.	.	.	2.f\	Glo-
*	*	*	*	*lig	*	*	*
!	!	!LO:LB:g=original	!	!	!	!	!
1C	-ri-	2.c\	.	1G	-ri-	.	.
.	.	.	.	.	.	4d\	-ri-
.	.	.	.	.	.	2e\	-a
.	.	4B\	.	.	.	.	.
=84-	=84-	=84-	=84-	=84-	=84-	=84-	=84-
2F\	-a	4A\	.	1A	.	1f	Pa-
.	.	4G\	.	.	.	.	.
2.D/	.	1F	.	.	.	.	.
*	*	*	*	*Xlig	*	*	*
.	.	.	.	1A,<	-a	2d\	.
4C/	.	.	.	.	.	.	.
2AA/	.	2E/	.	.	.	2e\	-tri
=85-	=85-	=85-	=85-	=85-	=85-	=85-	=85-
1A	Pa-	2.F/	-ri-	1A	Pa-	2c/	et
.	.	.	.	.	.	1f	Fi-
.	.	4E/	.	.	.	.	.
2F\	.	2D/	-a	1A,<	-tri	.	.
!	!	!	!	!	!	!LO:LB:g=original	!
2D/	.	1d\	Pa-	.	.	2f\	-li-
=86-	=86-	=86-	=86-	=86-	=86-	=86-	=86-
1A	.	.	.	1A	et	1e	-o
.	.	2c\	.	.	.	.	.
*	*	*	*	*custos:A	*	*	*
1D	-tri	2d\	-tri	1A	Fi-	2f\	et
.	.	2f\	et	.	.	1d\	Fi-
!	!	!	!	!LO:LB:g=original	!	!	!
=87-	=87-	=87-	=87-	=87-	=87-	=87-	=87-
2r	.	1e	.	1A	-li-	.	.
2A\	et	.	.	.	.	2c/	-li-
2F/	Fi-	2A/	.	1A	-o	1d	-o
2D/	-li-	1d\	Fi-	.	.	.	.
=88-	=88-	=88-	=88-	=88-	=88-	=88-	=88-
2.A\	-o	.	.	1A	et	1e	et
.	.	2c\	-li-	.	.	.	.
4G\	.	.	.	.	.	.	.
!LO:LB:g=original	!	!	!	!	!	!	!
2F\	et	1d	-o	1A	ſpi-	2A/	ſpi-
2D/	fi-	.	.	.	.	2d\	-ri-
=89-	=89-	=89-	=89-	=89-	=89-	=89-	=89-
*	*	*	*	*lig	*	*	*
2A\	-li-	2D/	et	1A	-ri-	2e\	-tu-
2AA/	-o	2E/	ſpi-	.	.	1f	-i
1C	.	1G	-ri-	1c	.	.	.
.	.	.	.	.	.	2e\	ſan-
*	*	*	*	*Xlig	*	*	*
=90-	=90-	=90-	=90-	=90-	=90-	=90-	=90-
2FF/	et	2.F/	-tu-	1A	-tu-	1f	-cto
2.F\	ſpi-	.	.	.	.	.	.
.	.	4G/	-i	.	.	.	.
.	.	2.A/	ſan-	1A	-i	2rf	.
4E\	.	.	.	.	.	.	.
2D/	-ri-	.	.	.	.	2f\	et
.	.	4B\	.	.	.	.	.
=91-	=91-	=91-	=91-	=91-	=91-	=91-	=91-
*	*	*	*	*lig	*	*	*
2C/	-tu-	4c\	.	1A	ſan-	2e\	.
.	.	4e\	.	.	.	.	.
2D/	-i	2d\	.	.	.	2f\	ſpi-
2.E/	San-	2B\	.	1G	.	2.g\	-ri-
.	.	2.c\	.	.	.	.	.
4D/	.	.	.	.	.	4f\	.
*	*	*	*	*Xlig	*	*	*
=92-	=92-	=92-	=92-	=92-	=92-	=92-	=92-
*	*	*	*	*lig	*	*	*
2C/	.	.	.	1G	-cto	2e\	-tu-
.	.	4C/	.	.	.	.	.
2BB/	.	2D/	.	.	.	2d\	-i
1AA	-cto	1E	-cto	1A	.	1c	ſan-
*	*	*	*	*Xlig	*	*	*
=93-	=93-	=93-	=93-	=93-	=93-	=93-	=93-
*	*	*	*	*lig	*	*	*
1C	ſi-	1c	ſi-	1G	ſi-	1e	.
2D/	-cut	2A\	.	1F	.	2f\	.
*	*	*custos:B	*	*	*	*	*
2F\	.	2d\	-cut	.	.	1d\	.
*	*	*	*	*Xlig	*	*	*
!	!	!LO:LB:g=original	!	!	!	!	!
=94-	=94-	=94-	=94-	=94-	=94-	=94-	=94-
*	*	*	*	*lig	*	*	*
1E	.	2B\	e-	1G	-cut	.	.
.	.	2c\	.	.	.	2c/	-cto
1D	.	2.A/	.	1A	.	1d	ſi-
.	.	4B\	.	.	.	.	.
*	*	*	*	*Xlig	*	*	*
=95-	=95-	=95-	=95-	=95-	=95-	=95-	=95-
1AA	e-	2c\	.	1A	e-	1e	-cut
.	.	2.A/	.	.	.	.	.
2D/	-rat	.	.	1A,<	-rat	2.f\	e-
.	.	4B\	.	.	.	.	.
2C/	in	2c\	.	.	.	.	.
.	.	.	.	.	.	4e\	.
=96-	=96-	=96-	=96-	=96-	=96-	=96-	=96-
2.F\	prin-	2F/	-rat	1A	in	2d/	.
.	.	1f	in	.	.	2c/	-rat
4E\	.	.	.	.	.	.	.
!	!	!	!	!	!	!LO:LB:g=original	!
2D/	.	.	.	1A	prin-	2d\	in
2C/	.	2e\	.	.	.	2A/	prin-
=97-	=97-	=97-	=97-	=97-	=97-	=97-	=97-
2D/	-ci-	2d\	.	1A	-ci-	2.f\	-ci-
2AA/	-pi-	2c\	.	.	.	.	.
.	.	.	.	.	.	4e\	.
!LO:LB:g=original	!	!	!	!	!	!	!
2.F\	-o	2d\	prin-	1A	-pi-	2d\	-pi-
.	.	2A/	-ci-	.	.	2c/	-o
4E\	.	.	.	.	.	.	.
=98-	=98-	=98-	=98-	=98-	=98-	=98-	=98-
2D/	.	2.f\	-pi-	1A,<	-o	2d/	et
2C/	.	.	.	.	.	1A	nunc
.	.	4e\	.	.	.	.	.
2F\	.	1d	-o	1A	et	.	.
2D/	et	.	.	.	.	2d\	.
=99-	=99-	=99-	=99-	=99-	=99-	=99-	=99-
*	*	*	*	*lig	*	*	*
2A\	nunc	2D/	et	1A	nunc	2e\	et
2AA/	.	2E/	.	.	.	1f	ſem-
1C	et.	1G	nunc	1c	.	.	.
.	.	.	.	.	.	2e\	.
*	*	*	*	*Xlig	*	*	*
=100-	=100-	=100-	=100-	=100-	=100-	=100-	=100-
2FF/	.	2.F/	et	1A	et	1f	-per
2F\	.	.	.	.	.	.	.
.	.	4G/	.	.	.	.	.
*	*	*	*	*lig	*	*	*
2C/	.	2A/	ſem-	1A	ſem-	2rf	.
2D/	.	1B\	.	.	.	2f\	et
=101-	=101-	=101-	=101-	=101-	=101-	=101-	=101-
2.E/	ſem-	.	.	1G	.	2.g\	.
.	.	2.c\	.	.	.	.	.
4D/	.	.	.	.	.	4f\	.
*	*	*	*	*Xlig	*	*	*
*	*	*	*	*lig	*	*	*
2C/	.	.	.	1G	-per	2e\	.
.	.	4C/	.	.	.	.	.
2BB/	.	2D/	.	.	.	2d\	.
=102-	=102-	=102-	=102-	=102-	=102-	=102-	=102-
1AA	-per	1E	-per	1A	.	1c	in
*	*	*	*	*Xlig	*	*	*
*	*	*	*	*lig	*	*	*
!	!	!	!	!LO:LB:g=original	!	!	!
1C	et	1c	et	1A	et	1e	.
=103-	=103-	=103-	=103-	=103-	=103-	=103-	=103-
2D/	in	2A\	.	1G	.	2f\	ſe-
2F\	.	2d\	in	.	.	1d	.
*	*	*	*	*Xlig	*	*	*
*	*	*	*	*lig	*	*	*
1E	.	2B\	ſe-	1G	in	.	.
.	.	2c\	.	.	.	2c/	-cu-
!	!	!LO:PB:g=original	!	!	!	!	!
=104-	=104-	=104-	=104-	=104-	=104-	=104-	=104-
1D	.	2.A/	.	1A	.	1d	-la
.	.	4B\	.	.	.	.	.
*	*	*	*	*Xlig	*	*	*
2D/	ſe-	2.f\	-cu-	1A	ſae-	2d\	ſe-
2C/	-cu-	.	.	.	.	2.A/	-cu-
.	.	4e\	.	.	.	.	.
=105-	=105-	=105-	=105-	=105-	=105-	=105-	=105-
2D/	-la	2d\	-la	1A	-cu-	.	.
.	.	.	.	.	.	4B/	.
1AA	.	1c	ſe-	.	.	4c/	.
.	.	.	.	.	.	4d/	.
.	.	.	.	1A,<	-la	2e\	.
1D\	ſae-	2.A/	.	.	.	1f\	-lo-
=106-	=106-	=106-	=106-	=106-	=106-	=106-	=106-
.	.	.	.	1A	ſae-	.	.
.	.	4B\	.	.	.	.	.
!	!	!	!	!	!	!LO:LB:g=original	!
2C/	.	2.c\	.	.	.	1e	.
*	*	*	*	*lig	*	*	*
*custos:E	*	*	*	*	*	*	*
1F	.	.	.	1A	-cu-	.	.
.	.	4B\	.	.	.	.	.
.	.	1A\	.	.	.	2d\	-rum
!LO:LB:g=original	!	!	!	!	!	!	!
=107-	=107-	=107-	=107-	=107-	=107-	=107-	=107-
1E	-cu-	.	.	1B	.	1e	ſe-
.	.	2G/	-cu-	.	.	.	.
*	*	*	*	*Xlig	*	*	*
*	*	*	*	*lig	*	*	*
2AA/	-lo-	2.A/	-lo-	1c	-lo-	2e\	-cu-
1A\	.	.	.	.	.	1e\	-lo-
.	.	4B\	.	.	.	.	.
=108-	=108-	=108-	=108-	=108-	=108-	=108-	=108-
.	.	2.c\	.	1A	.	.	.
4G\	.	.	.	.	.	2f\	.
4F\	.	4d\	.	.	.	.	.
*	*	*	*	*Xlig	*	*	*
2E/	.	1e	.	1G	-ru(m)	2g\	.
2C/	-rum	.	.	.	.	2e\	.
=109-	=109-	=109-	=109-	=109-	=109-	=109-	=109-
2.D/	a-	2d\	.	1F	a-	2f\	.
.	.	4c\	.	.	.	4e\	.
4E\	.	4B\	.	.	.	4d\	.
*	*	*	*	*lig	*	*	*
2F\	.	1A	-rum	1F	.	2c/	-rum
2FF/	.	.	.	.	.	1d\	a-
=110-	=110-	=110-	=110-	=110-	=110-	=110-	=110-
2GG/	.	2r	.	1E	.	.	.
2AA/	.	2A/	A-	.	.	2c/	.
*	*	*	*	*Xlig	*	*	*
2BB/	.	2F/	.	[1Dl;;	-men	2.d/	.
1GG/	.	2G/	-men	.	.	.	.
.	.	.	.	.	.	4c/	.
=111-	=111-	=111-	=111-	=111-	=111-	=111-	=111-
.	.	4F/	a-	0D_	.	2B/	.
.	.	4G/	.	.	.	.	.
2FF/	.	2A/	.	.	.	2A/	.
1GG	.	1B	.	.	.	1G	.
=112-	=112-	=112-	=112-	=112-	=112-	=112-	=112-
0Dl;;	-men	0Al;;	-men	0D]	.	0Fl;;	-men
==	==	==	==	==	==	==	==
*-	*-	*-	*-	*-	*-	*-	*-
!!!system-decoration: [g1]
!!!RDF**kern: > = above
!!!RDF**kern: < = below
!!!RDF**kern: l = terminal long
!!!ENC: Andrzej Kubiczek
!!!END: 2021-03-29
!!!ENC: Tomasz Grochalski
!!!END: 2021-03-22
